X:192
T:Fairy Dance, The TS.192
M:2/4
L:1/8
Q:1/2=110
S:Thomas Sands’ MS,1810,Lincolnshire
R:reel
O:England;Lincolnshire
Z:vmp.Ruairidh Greig, 2011
K:D
f2fd|f2fd|f2fd|cAec|f2f[da]|gfed|cABc|d2d2:|
|:a2af| b2ba|g2{f}ge|a2ag|f2fd|B2ge|c[Ad][eB]c|d2d2:|
w:B part has 1st written over it
|:a2af|b2b2|gf ge|a2a2|f2fa|gfed|c[Ad][Be]c|d2d2:|]
w:C part has 2nd written over it

